A/aframe.io icon.svg

<?xml version="1.0" ?>
<svg xmlns="http://www.w3.org/2000/svg" version="1" viewBox="0 0 64 480">
	<g fill="#EE295F">
		<path d="M-192 240v240h480V0h-480v240zm312.7-1.5c32.6 97.9 59.3 178.3 59.3 178.8 0 .4-7.5.6-16.7.5l-16.8-.3-15.5-48.3-15.5-48.2-75 .2-74.9.3-15.6 48.2-15.5 48.3h-16.3c-12.7 0-16.3-.3-16-1.3.3-.6 27.2-81.2 59.9-179L21.5 60l19.9.2 19.9.3 59.4 178z"/>
		<path d="M40.4 89.5c-.4 1.1-15.5 47.4-33.4 103l-32.7 101 66 .3c36.3.1 66.1.1 66.3-.1.2-.2-62.9-199.6-64.9-204.8-.3-1-.7-.8-1.3.6z"/>
	</g>
</svg>

<?xml version="1.0" ?>
<svg xmlns="http://www.w3.org/2000/svg" viewBox="0 0 480 480">
	<style>
		.cls0 { fill: #EE295F; }
	</style>
	<g class="cls0" transform="translate(192 0)">
		<path d="M -192.0,240.0 L -192.0,480.0 L 288.0,480.0 L 288.0,0.0 L -192.0,0.0 L -192.0,240.0 M 120.7,238.5 C 153.3,336.4 180.0,416.8 180.0,417.3 C 180.0,417.7 172.5,417.9 163.3,417.8 L 146.5,417.5 L 131.0,369.2 L 115.5,321.0 L 40.5,321.2 L -34.4,321.5 L -50.0,369.7 L -65.5,418.0 L -81.8,418.0 C -94.5,418.0 -98.1,417.7 -97.8,416.7 C -97.5,416.1 -70.6,335.5 -37.9,237.7 L 21.5,60.0 L 41.4,60.2 L 61.3,60.5 L 120.7,238.5" />
		<path d="M 40.4,89.5 C 40.0,90.6 24.9,136.9 7.0,192.5 L -25.7,293.5 L 40.3,293.8 C 76.6,293.9 106.4,293.9 106.6,293.7 C 106.8,293.5 43.7,94.1 41.7,88.9 C 41.4,87.9 41.0,88.1 40.4,89.5 L 40.4,89.5"/>
	</g>
</svg>
